X:1
T:4 Lieder, Op.11
T:Dulde, gedulde dich fein
T:4 Lieder, Op.11
T:Clara Faisst
T:4. Dulde, gedulde dich fein
T:Paul Heyse
T:Creative Commons copyright waiver (CC0 1.0 Universal)
T:Creative Commons copyright waiver (CC0 1.0 Universal)
T:Creative Commons copyright waiver (CC0 1.0 Universal)
T:Creative Commons copyright waiver (CC0 1.0 Universal)
T:Creative Commons copyright waiver (CC0 1.0 Universal)
C:Clara Faisst
Z:Paul Heyse
Z:Creative Commons copyright waiver (CC0 1.0 Universal)
%%score 1 { 2 | 3 }
L:1/8
M:9/8
K:Eb
V:1 treble nm="Voice\nGesang"
V:2 treble nm="Piano"
V:3 bass 
V:1
!p! c3 c2 c =B3/2 B/ B | z9 | z9 | z9 | z9 | z9 | z9 ||[M:3/4] z6 | z6 | z6 | z6 | z6 | z6 | z6 | %14
w: Dul- de, ge- dul- de dich||||||||||||||
 z6 | z6 | z6 | z6 | z6 | z6 | z6 | z6 | z6 | z6 | z6 | z6 ||[M:9/8] F2 F F3- F G A | z6 | z6 | %29
w: |||||||||||||||
 z6 | z6 | %31
w: ||
"^Note to transcriber:\n It is clear that there is a time signature\nchange between here and measure 30 in the piano RH.\nWe will place the time change to 9/8 here.\n" z6 | %32
w: |
 z6 | z6 | z6 | z6 | z6 | z6 ||[K:D][M:4/4] z8 | z8 | z8 | z8 | z8 | z8 | z8 | z8 | z8 | z8 || %48
w: ||||||||||||||||
[K:Eb] z8 | z8 ||[M:3/4] z6 | z6 | z6 | z6 | z6 | z6 | z6 | z6 | z6 | z6 | z6 | z6 | z6 | z6 | %64
w: ||||||||||||||||
 z6 ||[M:9/8] z9 | z9 | z9 | z9 | z9 | z9 | z9 | z9 | z9 | z3 z2 z |] %75
w: |||||||||||
V:2
!p! ([ce]3 [ce]2 [ce] [=Beg]>[Beg][Beg]) | z9 | z9 | z9 | z9 | z9 | z9 ||[M:3/4] z6 | z6 | z6 | %10
 z6 | z6 | z6 | z6 | z6 | z6 | z6 | z6 | z6 | z6 | z6 | z6 | z6 | z6 | z6 | z6 || %26
!p!"^Note to transcriber: the courtesy 9/8 time signature for the piano RH is a bug" (3[B,_DF][B,DF][B,DF][I:staff +1] (3[G,B,_D][G,B,D][G,B,D] (3[G,B,C][G,B,C=E][A,CF] | %27
[I:staff -1] z6 | z6 | z6 | z6 |[M:9/8] z6 | z6 | z6 | z6 | z6 | z6 | z6 ||[K:D][M:4/4] z8 | z8 | %40
 z8 | z8 | z8 | z8 | z8 | z8 | z8 | z8 ||[K:Eb] z8 | z8 ||[M:3/4] z6 | z6 | z6 | z6 | z6 | z6 | %56
 z6 | z6 | z6 | z6 | z6 | z6 | z6 | z6 | z6 ||[M:9/8] z9 | z9 | z9 | z9 | z9 | z9 | z9 | z9 | z9 | %74
 z3 z2 z |] %75
V:3
[I:staff -1] A3 A2 A G>GG |[I:staff +1] z9 | z9 | z9 |[K:treble] z9 | z3 z3/2[K:bass] z/ z4 | z9 || %7
[M:3/4] z6 | z6 | z6 | z6 | z2[K:treble] z4 |[K:bass] z2[K:treble] z4 |[K:bass] z2[K:treble] z4 | %14
[K:bass] z6 | z6 | z6 | z6 | z4[K:treble] z2 |[K:bass] z6 |[K:treble] z6 | z4[K:bass] z2 | z6 | %23
 z6 | z6 | z6 || !>![B,,,B,,]2 !>![C,,C,]3 [F,,,F,,] | z6 | z6 | z6 | z6 |[M:9/8] z6 | %32
[K:treble] z6 | z2[K:bass] z4 | z6 | z6 | z6 | z6 ||[K:D][M:4/4] z8 | z8 | z8 | z8 | z8 | z8 | z8 | %45
 z8 | z8 | z8 ||[K:Eb] z8 | z8 ||[M:3/4] z6 | z6 | z6 | z6 | z6 | z6 | z6 | z6 | z6 | z6 | z6 | %61
 z6 | z6 | z6 | z6 ||[M:9/8] z9 | z9 | z9 | z9 | z9 | z9 |[K:treble] z9 | z9 |[K:bass] z9 | %74
 z3 z2 z |] %75

